Modules/BetterCms.Module.Root/Scss/base_64/icons/cp-pub-warn.svg

<svg xmlns="http://www.w3.org/2000/svg" width="21" height="35" viewBox="0 0 21 35">
 <g fill-rule="evenodd">
  <path fill="#e0d018" d="m10.5 35c-5.799 0-10.5-4.701-10.5-10.5 0-5.799 4.701-10.5 10.5-10.5 5.799 0 10.5 4.701 10.5 10.5 0 5.799-4.701 10.5-10.5 10.5m0-18.667c-4.51 0-8.167 3.657-8.167 8.167 0 4.51 3.657 8.167 8.167 8.167 4.51 0 8.167-3.657 8.167-8.167 0-4.51-3.657-8.167-8.167-8.167m0 13.222c-.644 0-1.167-.522-1.167-1.166 0-.644.523-1.167 1.167-1.167.644 0 1.167.523 1.167 1.167 0 .644-.523 1.166-1.167 1.166m0-3.84c-.644 0-1.167-.522-1.167-1.166v-3.938c0-.644.523-1.167 1.167-1.167.644 0 1.167.523 1.167 1.167v3.938c0 .644-.523 1.166-1.167 1.166"/>
  <path fill="#a0a0a0" d="m18 7h-2-1v-1-2-1-2-1h1 2 1v1 2h-1v-2h-2v2h2v1h-2v2h2v-2h1v2 1h-1m-9 0v-1h3v1h-3m-1-7h1v6h-1v-6m4 0h1v6h-1v-6m-9 5v2h-1v-2-1-3-1h1 2 1v1 3 1h-1-2m2-4h-2v3h2v-3"/>
 </g>
</svg>

<svg xmlns="http://www.w3.org/2000/svg" preserveAspectRatio="xMidYMid" width="21" height="35" viewBox="0 0 21 35">
    <path fill="#e0d018" fill-rule="evenodd" d="M10.500,35.000 C4.701,35.000 0.000,30.299 0.000,24.500 C0.000,18.701 4.701,14.000 10.500,14.000 C16.299,14.000 21.000,18.701 21.000,24.500 C21.000,30.299 16.299,35.000 10.500,35.000 ZM10.500,16.333 C5.990,16.333 2.333,19.990 2.333,24.500 C2.333,29.010 5.990,32.667 10.500,32.667 C15.010,32.667 18.667,29.010 18.667,24.500 C18.667,19.990 15.010,16.333 10.500,16.333 ZM10.500,29.555 C9.856,29.555 9.333,29.033 9.333,28.389 C9.333,27.745 9.856,27.222 10.500,27.222 C11.144,27.222 11.667,27.745 11.667,28.389 C11.667,29.033 11.144,29.555 10.500,29.555 ZM10.500,25.715 C9.856,25.715 9.333,25.193 9.333,24.549 L9.333,20.611 C9.333,19.967 9.856,19.444 10.500,19.444 C11.144,19.444 11.667,19.967 11.667,20.611 L11.667,24.549 C11.667,25.193 11.144,25.715 10.500,25.715 Z"/>
    <path fill="#a0a0a0" fill-rule="evenodd" d="M18.000,7.000 L16.000,7.000 L15.000,7.000 L15.000,6.000 L15.000,4.000 L15.000,3.000 L15.000,1.000 L15.000,0.000 L16.000,0.000 L18.000,0.000 L19.000,0.000 L19.000,1.000 L19.000,3.000 L18.000,3.000 L18.000,1.000 L16.000,1.000 L16.000,3.000 L18.000,3.000 L18.000,4.000 L16.000,4.000 L16.000,6.000 L18.000,6.000 L18.000,4.000 L19.000,4.000 L19.000,6.000 L19.000,7.000 L18.000,7.000 ZM9.000,7.000 L9.000,6.000 L12.000,6.000 L12.000,7.000 L9.000,7.000 ZM8.000,0.000 L9.000,0.000 L9.000,6.000 L8.000,6.000 L8.000,0.000 ZM12.000,0.000 L13.000,0.000 L13.000,6.000 L12.000,6.000 L12.000,0.000 ZM3.000,5.000 L3.000,7.000 L2.000,7.000 L2.000,5.000 L2.000,4.000 L2.000,1.000 L2.000,0.000 L3.000,0.000 L5.000,0.000 L6.000,0.000 L6.000,1.000 L6.000,4.000 L6.000,5.000 L5.000,5.000 L3.000,5.000 ZM5.000,1.000 L3.000,1.000 L3.000,4.000 L5.000,4.000 L5.000,1.000 Z"/>
</svg>
